svg/u1f9bf.svg

<svg viewBox="0 0 128 128" xmlns="http://www.w3.org/2000/svg">
  <g>
    <path d="M39.1,37.54l13.02-7.72c0,0,3.81,3.35,3.72,3.53c-0.09,0.19-12.48,8.19-12.48,8.19L39.1,37.54z" fill="#546E7A"/>
    <rect fill="#3A6F8A" height="60.76" transform="matrix(0.9324 -0.3613 0.3613 0.9324 -25.9395 25.194)" width="4" x="52.4" y="51.58"/>
    <path d="M51.55,80.14c0,0,2.46-1.46,4.65,0.92l-2.52-6.31c0,0-4.86-1.58-4.81-1.44S51.55,80.14,51.55,80.14z " fill="#304E5E"/>
    <path d="M64.89,96.26c-4.06-12.69-3.72-20.12-6.82-24.9c-3.1-4.77-6.07-4.8-7.15-8.03 c-0.05-0.14-0.06-0.28-0.09-0.41c-0.32-1.67,0.92-2.94,2.56-5.42c1.1-1.55,3.71-4.52,1.21-11.81c-3.31-6.75-10.59-10.95-19.45-7.43 c-6.75,2.68-10.99,10.54-8.95,18.68c0.76,3.03,1.88,6.2,3.87,9.19c3.17,4.77,21.18,29.66,24.28,34.58c0.59,0.94,1.9,2.58,6.93,0.8 C65.52,100.03,65.08,96.87,64.89,96.26z M57.94,96.09L46.5,73.93c0,0,8.27,2.48,10.17,5.49c2.61,4.13,4.19,15.48,4.19,15.48 L57.94,96.09z" fill="#7497A5"/>
    <path d="M74.09,108.66l-15.34,1.44c-1,0.42-1.22,2-1.45,2.34c-0.91,1.32-2.48,2.49-3.79,3.39 c-3.17,2.18-6.91,3.03-10.73,2.66c-1.19-0.11-2.46-0.07-3.47,0.56c-1.36,0.84-1.55,4.22,3.96,4.8c6.62,0.7,10.73-1.22,14.72-2.69 c3.63-1.34,5.25-0.67,8.78-0.31c3.35,0.34,8.54,1.82,9.76-2.42c0.86-2.98,0.23-6.78-0.5-8.56C75.7,109.09,74.92,108.6,74.09,108.66 z" fill="#90A4AE"/>
    <path d="M68.8,123.47c3.16,0.33,5.94-0.46,7.19-3.42c0.17-0.4,0.53-1.62,0.53-1.62s-1.16,0.99-4.64-1.66 c-2.79-2.12-2.83-4.27-6.58-4.05c-3.74,0.22-7.03,6.91-16.05,8.98c-6.02,1.38-10.49-0.67-10.73-0.81c0.15,1.22,1.38,2.61,4.74,2.97 c6.62,0.7,12.1,0.15,16.19-1.01C63.14,121.8,65.27,123.1,68.8,123.47z" fill="#537F94"/>
    <path d="M73.75,112.03c0-1.64-0.28-3.31-0.28-3.31l-14.72,1.38c-1,0.42-1.22,2-1.45,2.34 c-0.67,0.97-1.7,1.86-2.72,2.62c0.02-0.02,1.25-1,2.57,0c1.32,1.02,3.7,5.34,9.56,4.15C72.56,118.03,73.75,114.19,73.75,112.03z" fill="#466B7D"/>
    <path d="M71.28,106.04c-1.38-2.19-3.85-3.55-6.44-3.55c0,0-1.11-0.05-2.61,0.41 c-1.5,0.46-2.49,1.26-2.49,1.26l-1.23-0.92c0,0-1.49,0.77-2.44,2.12c-1.92,2.73-1.89,6.28-0.32,8.69c1.36-1.01,2.99,0.65,3.38,1.07 c0.46,0.51,0.98,0.97,1.55,1.35c2.04,1.34,4.67,1.61,6.94,0.72C72,115.48,73.8,110.02,71.28,106.04z" fill="#90A4AE"/>
    <path d="M44.2,68.04c2.9,0.25,5.84,0.09,8.71,0.57c1.34,0.22,2.66,0.59,3.92,1.08 c-2.63-3.15-4.98-3.56-5.91-6.35c-0.05-0.14-0.06-0.28-0.09-0.41c-0.32-1.67,0.92-2.94,2.56-5.42c1.1-1.55,3.71-4.52,1.21-11.81 c-1.72-3.51-4.72-6.43-8.34-7.89c-3.4,2.08-8.54,5.19-9.54,5.78c-5.66,3.29-6.92,10.21-4.28,16.2 C34.67,64.87,38.73,67.56,44.2,68.04z" fill="#466B7D"/>
    <path d="M96.76,45.34L88,39.79c0.99-2.25,0.75-4.86,0.16-7.25c-1-4.05-2.99-7.93-6.08-10.73 c-3.09-2.8-7.34-4.44-11.48-3.96c-2.18,0.26-4.26,1.08-6.22,2.07C56.31,24,35.73,38.05,35.73,38.05s2.84-1.17,6.98-1l5.58-3.58 c2.34-1.47,4.15,0,2.04,1.42c-0.87,0.59-11.09,6.79-12.55,7.64c-5.66,3.29-7.57,10.54-4.28,16.2c2.87,4.94,8.76,7.03,13.98,5.29 C48.22,63.77,96.76,45.34,96.76,45.34z" fill="#90A4AE"/>
    <polygon fill="#212121" opacity="0.39" points="72.07,19.71 72.07,19.71 72.07,19.71 "/>
    <g>
      <circle cx="43.73" cy="54.17" fill="#466B7D" r="6.06"/>
      <radialGradient id="SVGID_1_" cx="40.4245" cy="50.2573" gradientUnits="userSpaceOnUse" r="7.5076">
        <stop offset="0.2244" stop-color="#FFFFFF"/>
        <stop offset="0.9855" stop-color="#BEBEBE"/>
        <stop offset="1" stop-color="#BDBDBD"/>
      </radialGradient>
      <circle cx="43.36" cy="52.9" fill="url(#SVGID_1_)" r="5.65"/>
      <ellipse cx="44.01" cy="53.69" fill="#C2B5A8" rx="4.91" ry="4.88"/>
    </g>
    <path d="M35.72,59.47c-3.29-5.66-0.18-12.06,5.38-15.51c4.51-2.81,33.72-20.45,41.59-21.55 c-0.2-0.2-0.39-0.41-0.61-0.6c-3.09-2.8-7.34-4.44-11.48-3.96c-2.18,0.26-4.26,1.08-6.22,2.07C56.31,24,35.73,38.05,35.73,38.05 s2.72-1.28,6.98-1l5.58-3.58c2.34-1.47,4.15,0,2.04,1.42c-0.87,0.59-11.09,6.79-12.55,7.64c-5.66,3.29-7.57,10.54-4.28,16.2 c1.72,2.96,4.52,4.88,7.61,5.58C38.92,63.34,37.02,61.7,35.72,59.47z" fill="#D3CAC3"/>
    <path d="M68.3,55.99l-0.11,0.19c9.1-3.45,18.93-7.18,24.36-9.24c-1.34-1.3-3.06-2.31-4.65-3.34 c-0.82-0.53-1.62-1.09-2.4-1.67c-4.11-3.05-7.81-6.68-11.06-10.61c-1.44-1.75-3.37-3.79-4.19-5.93c-0.74-1.93-2.01-4.11-4.14-4.75 c-1.6-0.48-3.32,0.06-4.83,0.79c-0.28,0.14-0.59,0.53-0.32,0.7c1.55-0.61,3.38,0.13,4.49,1.37c1.11,1.24,1.64,2.89,2.05,4.5 c1.57,6.26,3.16,12.31,6.64,17.83c0.97,1.54,2,3.39,1.33,5.08C74.45,53.5,70.12,55.21,68.3,55.99z" fill="#466B7D"/>
    <path d="M83.93,4.5C67.48,7.33,60.87,21.93,60.87,21.93s6.2-2.66,7.59,3.56 c2.76,16.1,12.33,23.93,24.01,21.93c11.68-2.01,19.53-13.1,17.52-24.78S99.28,1.87,83.93,4.5z" fill="#90A4AE"/>
    <path d="M106.62,26.28c-0.57-3.29-2.12-6.16-4.3-8.38c0,0,0,0,0,0c-6.39-6.49-15.18-6.69-20.83-2.15 c-7.64,6.14-10.08,19.76,1.85,26.94c0,0,0,0,0,0l0,0C95.11,49.24,108.81,38.97,106.62,26.28z" fill="#466B7D"/>
    <circle cx="92.01" cy="26.78" fill="#C2B5A8" r="15.71"/>
    <radialGradient id="SVGID_2_" cx="81.5115" cy="14.9156" gradientUnits="userSpaceOnUse" r="20.5406">
      <stop offset="0" stop-color="#FFFFFF"/>
      <stop offset="0.921" stop-color="#CDD7DB" stop-opacity="0"/>
    </radialGradient>
    <path d="M80.03,32.12c-1.47-8.55,4.27-16.67,12.82-18.14c3.7-0.64,7.32,0.08,10.36,1.79 c-3.49-3.54-8.59-5.39-13.86-4.48c-8.55,1.47-14.29,9.59-12.82,18.14c0.83,4.85,3.81,8.79,7.78,11.03 C82.14,38.26,80.6,35.4,80.03,32.12z" fill="url(#SVGID_2_)"/>
    <g>
      <circle cx="65.67" cy="110.92" fill="#466B7D" r="4.33"/>
      <radialGradient id="SVGID_3_" cx="63.3118" cy="108.1233" gradientUnits="userSpaceOnUse" r="5.3581">
        <stop offset="0.2244" stop-color="#FFFFFF"/>
        <stop offset="0.9855" stop-color="#BEBEBE"/>
        <stop offset="1" stop-color="#BDBDBD"/>
      </radialGradient>
      <circle cx="65.41" cy="110.01" fill="url(#SVGID_3_)" r="4.03"/>
      <ellipse cx="65.87" cy="110.58" fill="#C2B5A8" rx="3.5" ry="3.48"/>
    </g>
    <path d="M57.06,110.01c0-2.35,1.06-4.39,2.69-5.85l-1.23-0.92c0,0-1.23,0.56-2.44,2.12 c-2.04,2.65-1.89,6.28-0.32,8.69c0.93-0.69,1.98-0.14,2.68,0.42C57.56,113.2,57.06,111.66,57.06,110.01z" fill="#D3CAC3"/>
    <radialGradient id="SVGID_4_" cx="28.9948" cy="44.063" gradientUnits="userSpaceOnUse" r="18.2583">
      <stop offset="0" stop-color="#D3CAC3"/>
      <stop offset="1" stop-color="#D3CAC3" stop-opacity="0"/>
    </radialGradient>
    <path d="M28.4,54.22c-0.14-4.49,1.19-8.84,4.98-11.7c3.79-2.86,3.41-2.63,3.08-3.15 c-0.79-1.25-2.86-0.3-3.06-0.24c-5.7,3.25-9.05,10.42-7.19,17.82c0.74,2.95,1.82,6.02,3.71,8.94c0.02-0.02,0.05-0.04,0.07-0.07 l4.83,3.3C29.52,61.73,28.48,56.68,28.4,54.22z" fill="url(#SVGID_4_)"/>
    <radialGradient id="SVGID_5_" cx="82.1801" cy="12.5179" gradientUnits="userSpaceOnUse" r="13.9808">
      <stop offset="0" stop-color="#D3CAC3"/>
      <stop offset="1" stop-color="#D3CAC3" stop-opacity="0"/>
    </radialGradient>
    <path d="M100.05,6.88c0,0-2.37-1.38-4.22-1.86c-3.38-1.04-7.34-1.29-11.9-0.51 c-8.97,1.54-15,6.58-18.64,10.84c-1.9,2.42-0.67,4.88,0.82,5.3c3.91,1.08,4.68-0.5,6.32-2.59c1.9-2.41,4.96-7.34,12.35-10.33 C92.01,4.8,100.05,6.88,100.05,6.88z" fill="url(#SVGID_5_)"/>
  </g>
</svg>

<svg viewBox="0 0 128 128" xmlns="http://www.w3.org/2000/svg">
  <defs>
    <radialGradient id="SVGID_2_" cx="81.5115" cy="14.9156" gradientUnits="userSpaceOnUse" r="20.5406">
      <stop offset="0" stop-color="#FFFFFF"/>
      <stop offset="0.921" stop-color="#CDD7DB" stop-opacity="0"/>
    </radialGradient>
    <radialGradient id="SVGID_4_" cx="28.9948" cy="44.063" gradientUnits="userSpaceOnUse" r="18.2583">
      <stop offset="0" stop-color="#D3CAC3"/>
      <stop offset="1" stop-color="#D3CAC3" stop-opacity="0"/>
    </radialGradient>
    <radialGradient id="SVGID_5_" cx="82.1801" cy="12.5179" gradientUnits="userSpaceOnUse" r="13.9808">
      <stop offset="0" stop-color="#D3CAC3"/>
      <stop offset="1" stop-color="#D3CAC3" stop-opacity="0"/>
    </radialGradient>
    <radialGradient id="SVGID_1_" cx="40.4245" cy="50.2573" gradientUnits="userSpaceOnUse" r="7.5076">
      <stop offset="0.2244" stop-color="#FFFFFF"/>
      <stop offset="0.9855" stop-color="#BEBEBE"/>
      <stop offset="1" stop-color="#BDBDBD"/>
    </radialGradient>
    <radialGradient id="SVGID_3_" cx="63.3118" cy="108.1233" gradientUnits="userSpaceOnUse" r="5.3581">
      <stop offset="0.2244" stop-color="#FFFFFF"/>
      <stop offset="0.9855" stop-color="#BEBEBE"/>
      <stop offset="1" stop-color="#BDBDBD"/>
    </radialGradient>
  </defs>
  <path d="M39.1,37.54 L52.12,29.82 C52.12,29.82 55.93,33.17 55.84,33.35 C55.75,33.54 43.36,41.54 43.36,41.54 L39.1,37.54 Z" fill="#546E7A"/>
  <path d="M41.554,54.355 L45.284,52.91 L67.236,109.562 L63.507,111.008 L41.554,54.355 Z" fill="#3A6F8A"/>
  <path d="M51.55,80.14 C51.55,80.14 54.01,78.68 56.2,81.06 L53.68,74.75 C53.68,74.75 48.82,73.17 48.87,73.31 C48.92,73.45 51.55,80.14 51.55,80.14 Z" fill="#304E5E"/>
  <path d="M64.89,96.26 C60.83,83.57 61.17,76.14 58.07,71.36 C54.97,66.59 52,66.56 50.92,63.33 C50.87,63.19 50.86,63.05 50.83,62.92 C50.51,61.25 51.75,59.98 53.39,57.5 C54.49,55.95 57.1,52.98 54.6,45.69 C51.29,38.94 44.01,34.74 35.15,38.26 C28.4,40.94 24.16,48.8 26.2,56.94 C26.96,59.97 28.08,63.14 30.07,66.13 C33.24,70.9 51.25,95.79 54.35,100.71 C54.94,101.65 56.25,103.29 61.28,101.51 C65.52,100.03 65.08,96.87 64.89,96.26 Z M57.94,96.09 L46.5,73.93 C46.5,73.93 54.77,76.41 56.67,79.42 C59.28,83.55 60.86,94.9 60.86,94.9 L57.94,96.09 Z" fill="#7497A5"/>
  <path d="M74.09,108.66 L58.75,110.1 C57.75,110.52 57.53,112.1 57.3,112.44 C56.39,113.76 54.82,114.93 53.51,115.83 C50.34,118.01 46.6,118.86 42.78,118.49 C41.59,118.38 40.32,118.42 39.31,119.05 C37.95,119.89 37.76,123.27 43.27,123.85 C49.89,124.55 54,122.63 57.99,121.16 C61.62,119.82 63.24,120.49 66.77,120.85 C70.12,121.19 75.31,122.67 76.53,118.43 C77.39,115.45 76.76,111.65 76.03,109.87 C75.7,109.09 74.92,108.6 74.09,108.66 Z" fill="#90A4AE"/>
  <path d="M68.8,123.47 C71.96,123.8 74.74,123.01 75.99,120.05 C76.16,119.65 76.52,118.43 76.52,118.43 C76.52,118.43 75.36,119.42 71.88,116.77 C69.09,114.65 69.05,112.5 65.3,112.72 C61.56,112.94 58.27,119.63 49.25,121.7 C43.23,123.08 38.76,121.03 38.52,120.89 C38.67,122.11 39.9,123.5 43.26,123.86 C49.88,124.56 55.36,124.01 59.45,122.85 C63.14,121.8 65.27,123.1 68.8,123.47 Z" fill="#537F94"/>
  <path d="M73.75,112.03 C73.75,110.39 73.47,108.72 73.47,108.72 L58.75,110.1 C57.75,110.52 57.53,112.1 57.3,112.44 C56.63,113.41 55.6,114.3 54.58,115.06 C54.6,115.04 55.83,114.06 57.15,115.06 C58.47,116.08 60.85,120.4 66.71,119.21 C72.56,118.03 73.75,114.19 73.75,112.03 Z" fill="#466B7D"/>
  <path d="M71.28,106.04 C69.9,103.85 67.43,102.49 64.84,102.49 C64.84,102.49 63.73,102.44 62.23,102.9 C60.73,103.36 59.74,104.16 59.74,104.16 L58.51,103.24 C58.51,103.24 57.02,104.01 56.07,105.36 C54.15,108.09 54.18,111.64 55.75,114.05 C57.11,113.04 58.74,114.7 59.13,115.12 C59.59,115.63 60.11,116.09 60.68,116.47 C62.72,117.81 65.35,118.08 67.62,117.19 C72,115.48 73.8,110.02 71.28,106.04 Z" fill="#90A4AE"/>
  <path d="M44.2,68.04 C47.1,68.29 50.04,68.13 52.91,68.61 C54.25,68.83 55.57,69.2 56.83,69.69 C54.2,66.54 51.85,66.13 50.92,63.34 C50.87,63.2 50.86,63.06 50.83,62.93 C50.51,61.26 51.75,59.99 53.39,57.51 C54.49,55.96 57.1,52.99 54.6,45.7 C52.88,42.19 49.88,39.27 46.26,37.81 C42.86,39.89 37.72,43 36.72,43.59 C31.06,46.88 29.8,53.8 32.44,59.79 C34.67,64.87 38.73,67.56 44.2,68.04 Z" fill="#466B7D"/>
  <path d="M96.76,45.34 L88,39.79 C88.99,37.54 88.75,34.93 88.16,32.54 C87.16,28.49 85.17,24.61 82.08,21.81 C78.99,19.01 74.74,17.37 70.6,17.85 C68.42,18.11 66.34,18.93 64.38,19.92 C56.31,24 35.73,38.05 35.73,38.05 C35.73,38.05 38.57,36.88 42.71,37.05 L48.29,33.47 C50.63,32 52.44,33.47 50.33,34.89 C49.46,35.48 39.24,41.68 37.78,42.53 C32.12,45.82 30.21,53.07 33.5,58.73 C36.37,63.67 42.26,65.76 47.48,64.02 C48.22,63.77 96.76,45.34 96.76,45.34 Z" fill="#90A4AE"/>
  <path d="M49.79,54.17 A6.06 6.06 0 1 1 37.67,54.17 A6.06 6.06 0 1 1 49.79,54.17 Z" fill="#466B7D"/>
  <path d="M49.01,52.9 A5.65 5.65 0 1 1 37.71,52.9 A5.65 5.65 0 1 1 49.01,52.9 Z" fill="url(#SVGID_1_)"/>
  <path d="M48.92,53.69 A4.91 4.88 0 1 1 39.1,53.69 A4.91 4.88 0 1 1 48.92,53.69 Z" fill="#C2B5A8"/>
  <path d="M35.72,59.47 C32.43,53.81 35.54,47.41 41.1,43.96 C45.61,41.15 74.82,23.51 82.69,22.41 C82.49,22.21 82.3,22 82.08,21.81 C78.99,19.01 74.74,17.37 70.6,17.85 C68.42,18.11 66.34,18.93 64.38,19.92 C56.31,24 35.73,38.05 35.73,38.05 C35.73,38.05 38.45,36.77 42.71,37.05 L48.29,33.47 C50.63,32 52.44,33.47 50.33,34.89 C49.46,35.48 39.24,41.68 37.78,42.53 C32.12,45.82 30.21,53.07 33.5,58.73 C35.22,61.69 38.02,63.61 41.11,64.31 C38.92,63.34 37.02,61.7 35.72,59.47 Z" fill="#D3CAC3"/>
  <path d="M68.3,55.99 L68.19,56.18 C77.29,52.73 87.12,49 92.55,46.94 C91.21,45.64 89.49,44.63 87.9,43.6 C87.08,43.07 86.28,42.51 85.5,41.93 C81.39,38.88 77.69,35.25 74.44,31.32 C73,29.57 71.07,27.53 70.25,25.39 C69.51,23.46 68.24,21.28 66.11,20.64 C64.51,20.16 62.79,20.7 61.28,21.43 C61,21.57 60.69,21.96 60.96,22.13 C62.51,21.52 64.34,22.26 65.45,23.5 C66.56,24.74 67.09,26.39 67.5,28 C69.07,34.26 70.66,40.31 74.14,45.83 C75.11,47.37 76.14,49.22 75.47,50.91 C74.45,53.5 70.12,55.21 68.3,55.99 Z" fill="#466B7D"/>
  <path d="M83.93,4.5 C67.48,7.33 60.87,21.93 60.87,21.93 C60.87,21.93 67.07,19.27 68.46,25.49 C71.22,41.59 80.79,49.42 92.47,47.42 C104.15,45.41 112,34.32 109.99,22.64 C107.98,10.96 99.28,1.87 83.93,4.5 Z" fill="#90A4AE"/>
  <path d="M106.62,26.28 C106.05,22.99 104.5,20.12 102.32,17.9 C102.32,17.9 102.32,17.9 102.32,17.9 C95.93,11.41 87.14,11.21 81.49,15.75 C73.85,21.89 71.41,35.51 83.34,42.69 C83.34,42.69 83.34,42.69 83.34,42.69 L83.34,42.69 C95.11,49.24 108.81,38.97 106.62,26.28 Z" fill="#466B7D"/>
  <path d="M107.72,26.78 A15.71 15.71 0 1 1 76.3,26.78 A15.71 15.71 0 1 1 107.72,26.78 Z" fill="#C2B5A8"/>
  <path d="M80.03,32.12 C78.56,23.57 84.3,15.45 92.85,13.98 C96.55,13.34 100.17,14.06 103.21,15.77 C99.72,12.23 94.62,10.38 89.35,11.29 C80.8,12.76 75.06,20.88 76.53,29.43 C77.36,34.28 80.34,38.22 84.31,40.46 C82.14,38.26 80.6,35.4 80.03,32.12 Z" fill="url(#SVGID_2_)"/>
  <path d="M70,110.92 A4.33 4.33 0 1 1 61.34,110.92 A4.33 4.33 0 1 1 70,110.92 Z" fill="#466B7D"/>
  <path d="M69.44,110.01 A4.03 4.03 0 1 1 61.38,110.01 A4.03 4.03 0 1 1 69.44,110.01 Z" fill="url(#SVGID_3_)"/>
  <path d="M69.37,110.58 A3.5 3.48 0 1 1 62.37,110.58 A3.5 3.48 0 1 1 69.37,110.58 Z" fill="#C2B5A8"/>
  <path d="M57.06,110.01 C57.06,107.66 58.12,105.62 59.75,104.16 L58.52,103.24 C58.52,103.24 57.29,103.8 56.08,105.36 C54.04,108.01 54.19,111.64 55.76,114.05 C56.69,113.36 57.74,113.91 58.44,114.47 C57.56,113.2 57.06,111.66 57.06,110.01 Z" fill="#D3CAC3"/>
  <path d="M28.4,54.22 C28.26,49.73 29.59,45.38 33.38,42.52 C37.17,39.66 36.79,39.89 36.46,39.37 C35.67,38.12 33.6,39.07 33.4,39.13 C27.7,42.38 24.35,49.55 26.21,56.95 C26.95,59.9 28.03,62.97 29.92,65.89 C29.94,65.87 29.97,65.85 29.99,65.82 L34.82,69.12 C29.52,61.73 28.48,56.68 28.4,54.22 Z" fill="url(#SVGID_4_)"/>
  <path d="M100.05,6.88 C100.05,6.88 97.68,5.5 95.83,5.02 C92.45,3.98 88.49,3.73 83.93,4.51 C74.96,6.05 68.93,11.09 65.29,15.35 C63.39,17.77 64.62,20.23 66.11,20.65 C70.02,21.73 70.79,20.15 72.43,18.06 C74.33,15.65 77.39,10.72 84.78,7.73 C92.01,4.8 100.05,6.88 100.05,6.88 Z" fill="url(#SVGID_5_)"/>
</svg>
